svgs/light/phone-arrow-up-right.svg

<svg xmlns="http://www.w3.org/2000/svg" viewBox="0 0 512 512"><!--! Font Awesome Pro 6.0.0-alpha3 by @fontawesome - https://fontawesome.com License - https://fontawesome.com/license (Commercial License) --><path d="M484.6 330.6C484.6 330.6 484.6 330.6 484.6 330.6l-101.8-43.66c-18.5-7.688-40.2-2.375-52.75 13.08l-33.14 40.47C244.2 311.8 200.3 267.9 171.6 215.2L212.1 181.1c15.67-12.92 20.83-34.16 12.84-52.84l-43.61-101.8c-8.719-20.09-30.61-31.11-51.81-26.22l-94.39 21.91C14.47 27.78 0 45.9 0 67.12C0 312.4 199.6 512 444.9 512c21.24 0 39.41-14.44 44.17-35.13l21.8-94.47C515.7 361.1 504.7 339.3 484.6 330.6zM457.9 469.7C456.5 475.7 451 480 444.9 480C217.2 480 32 294.8 32 67.12c0-6.188 4.234-11.48 10.34-12.88l94.41-21.91c1-.2344 2-.3438 2.984-.3438c5.234 0 10.11 3.094 12.25 8.031l43.58 101.7C197.9 147.2 196.4 153.5 191.8 157.3l-50.5 41.38c-5.75 4.719-7.5 12.77-4.219 19.44c33.38 67.81 89.11 123.5 156.9 156.9c6.641 3.312 14.73 1.531 19.44-4.219l41.39-50.5c3.703-4.562 10.16-6.062 15.5-3.844l101.6 43.56c5.906 2.562 9.156 8.969 7.719 15.22L457.9 469.7zM496 0h-128C359.2 0 352 7.156 352 16S359.2 32 368 32h89.38l-164.7 164.7c-6.25 6.25-6.25 16.38 0 22.62C295.8 222.4 299.9 224 304 224s8.188-1.562 11.31-4.688L480 54.63V144C480 152.8 487.2 160 496 160S512 152.8 512 144v-128C512 7.156 504.8 0 496 0z"/></svg>

<svg xmlns="http://www.w3.org/2000/svg" viewBox="0 0 512 512"><!-- Font Awesome Pro 6.0.0-alpha2 by @fontawesome - https://fontawesome.com License - https://fontawesome.com/license (Commercial License) --><path d="M484.629 330.623C484.613 330.623 484.598 330.623 484.582 330.592L382.83 286.951C364.33 279.264 342.627 284.576 330.08 300.029L296.939 340.498C244.189 311.779 200.33 267.92 171.627 215.186L212.143 181.998C227.814 169.076 232.971 147.842 224.986 129.154L181.377 27.373C172.658 7.279 150.768 -3.736 129.562 1.154L35.172 23.061C14.469 27.779 0 45.904 0 67.123C0 312.436 199.564 512 444.877 512C466.113 512 484.285 497.562 489.051 476.875L510.848 382.404C515.738 361.092 504.707 339.311 484.629 330.623ZM457.863 469.688C456.488 475.656 451.02 480 444.877 480C217.221 480 32 294.779 32 67.123C32 60.936 36.234 55.639 42.344 54.248L136.75 32.342C137.75 32.107 138.75 31.998 139.734 31.998C144.969 31.998 149.846 35.092 151.986 40.029L195.564 141.732C197.924 147.248 196.393 153.498 191.814 157.279L141.313 198.654C135.563 203.373 133.813 211.42 137.094 218.092C170.471 285.904 226.205 341.623 294.033 374.998C300.674 378.311 308.768 376.529 313.471 370.779L354.861 320.279C358.564 315.717 365.018 314.217 370.361 316.436L471.941 359.998C477.848 362.561 481.098 368.967 479.66 375.217L457.863 469.688ZM496 0H368C359.156 0 352 7.156 352 16S359.156 32 368 32H457.375L292.688 196.688C286.438 202.938 286.438 213.063 292.688 219.312C295.812 222.438 299.906 224 304 224S312.188 222.438 315.312 219.312L480 54.625V144C480 152.844 487.156 160 496 160S512 152.844 512 144V16C512 7.156 504.844 0 496 0Z"/></svg>
